icons/exchange-funds-fill.svg

<svg xmlns="http://www.w3.org/2000/svg" width="24" height="24" fill="none"><g clip-path="url(#a)"><g><path fill="#121212" d="M5.373 4.51C7.1997 2.88937 9.55803 1.99615 12 2C17.523 2 22 6.477 22 12C22.0033 14.0439 21.3772 16.0393 20.207 17.715L17.5 12H20C20 10.4094 19.5259 8.85481 18.6381 7.53495C17.7504 6.21509 16.4893 5.18983 15.016 4.59015C13.5428 3.99048 11.9242 3.8436 10.367 4.16829C8.80985 4.49298 7.38484 5.27449 6.274 6.413L5.374 4.511L5.373 4.51ZM18.627 19.49C16.8003 21.1106 14.442 22.0038 12 22C6.477 22 2 17.523 2 12C2 9.875 2.663 7.905 3.793 6.285L6.5 12H4C3.99997 13.5906 4.47412 15.1452 5.36188 16.465C6.24964 17.7849 7.5107 18.8102 8.98397 19.4098C10.4572 20.0095 12.0758 20.1564 13.633 19.8317C15.1901 19.507 16.6152 18.7255 17.726 17.587L18.626 19.489L18.627 19.49ZM13.414 14.828L10.586 12L7.757 14.828L6.343 13.414L10.586 9.172L13.414 12L16.243 9.172L17.657 10.586L13.414 14.828Z"/></g></g><defs><clipPath id="a"><rect width="24" height="24" fill="white"/></clipPath></defs></svg>

<svg width="24" height="24" fill="none" xmlns="http://www.w3.org/2000/svg"><g clip-path="url(#a)"><path d="M5.373 4.51A9.962 9.962 0 0 1 12 2c5.523 0 10 4.477 10 10a9.954 9.954 0 0 1-1.793 5.715L17.5 12H20A8 8 0 0 0 6.274 6.413l-.9-1.902-.001-.001Zm13.254 14.98A9.962 9.962 0 0 1 12 22C6.477 22 2 17.523 2 12c0-2.125.663-4.095 1.793-5.715L6.5 12H4a8 8 0 0 0 13.726 5.587l.9 1.902.001.001Zm-5.213-4.662L10.586 12l-2.829 2.828-1.414-1.414 4.243-4.242L13.414 12l2.829-2.828 1.414 1.414-4.243 4.242Z" /></g><defs><clipPath id="a"><path fill="#fff" d="M0 0h24v24H0z"/></clipPath></defs></svg>
